X:1
T:Title
%%score { ( 1 2 5 ) | ( 3 4 6 ) }
L:1/8
Q:1/4=110
M:4/4
K:Bb
V:1 treble nm="Grand Piano"
V:2 treble 
V:5 treble 
V:3 bass 
V:4 bass 
V:6 bass 
V:1
 F4 z4 | F4 z4 | F4 z4 | .D2 .D2 .[Fd]2 .[Fd]2 | .[=Ed]2 .[CE]2 .[CEc]2 .EG | A4 z4 | F8- | F6 z2 | %8
w: Asa~Hull||||||||
 F4 z4 | F4 z4 | F4 z4 | .D2 D2 .[Fd]2 .[Fd]2 | z .c3 z4 | A4 z4 | F8- | F6 z2 | %16
w: ||||||||
 [B,DF]4 [B,EG]2 [B,DF]2 | F4 z4 | [DF]3- [DF]3/4-[DF]/8<A/8 G2 [DF]2 | [DF]4 [Fd]2 [Fd]2 | %20
w: ||||
 z4 z .B3 | A4 z4 | F6 z2 | B,4- [B,FB]2 [Fc]2 | [Fd]4 [Ee]2 [B=e]2 | f2- [Ff]2 c2 d2 | [DB]6 z2 |] %27
w: |||||||
V:2
 .D2 .D3/2 z/4 z/16 A3/16 .[EG]2 .[DF]2 | .D2 .D2 .[DB]2 .[DF]2 | %2
 .D2 .D3/2 z/4 z/16 A3/16 .[EG]2 .[DF]2 | F4 z4 | x8 | z2 .FG/A/ .[=EB]2 E2 | z4 E2 D2 | C6 z2 | %8
 .D2 D3/2-D/4-D/8<A/8 .[EG]2 .[DF]2 | .D2 D2 [DB]2 .[DF]2 | .D2 D3/2-D/4-D/8<A/8 .[EG]2 .[DF]2 | %11
 F4 z4 | .[=Ed]2 EG .[CEc]2 EG | z2 F2 .[C=EB]2 E2 | z4 E2 D2 | C6 z2 | x8 | [B,D]6 [DF]2 | x8 | %19
 x8 | .[=Ed]2 [CE]2 .c2 z G | z2 F2 z4 | [A,C]4 B,2 [A,EF]2 | [DF]4 z4 | x8 | B2 z2 z4 | x8 |] %27
V:3
 .[B,,B,]2 .[B,,B,]2 .[B,,B,]2 .[B,,B,]2 | .[B,,B,]2 .[B,,B,]2 .[B,,D,B,]2 .[B,,B,]2 | %2
 .[B,,B,]2 .[B,,B,]2 .[B,,B,]2 .[B,,B,]2 | .[B,,B,]2 .[B,,B,]2 .[B,,B,]2 .[B,,B,]2 | %4
 z[K:treble] .c3[K:bass] z[K:treble] .B3[K:bass] | .[F,CF]2 .[F,C]2 .[C,C]2 .[C,B,C]2 | [A,C]4 z4 | %7
 z8 | .[B,,B,]2 .[B,,B,]2 .[B,,B,]2 .[B,,B,]2 | .[B,,B,]2 .[B,,B,]2 .[B,,B,]2 .[B,,B,]2 | %10
 .[B,,B,]2 .[B,,B,]2 .[B,,B,]2 .[B,,B,]2 | .[B,,B,]2 .[B,,B,]2 .[B,,B,]2 .[B,,B,]2 | %12
 z4 z[K:treble] .B3[K:bass] | .[F,CF]2 .[F,C][K:treble]G/A/[K:bass] .C,2 .[C,B,C]2 | [A,C]4 z4 | %15
 z8 | B,,3- B,,3/4-B,,/8<A/8 B,,2 B,,2 | z4[K:treble] B2[K:bass] [B,,B,]2 | z4 E2 [B,,B,]2 | %19
 [B,,B,]6 [B,,B,]2 | z[K:treble] .c3[K:bass] z4 | [F,CF]2 [F,C]2 C,2 C,2 | F,2 E,2 D,2 C,2 | %23
 B,,4 D,2 [F,A,]2 | B,6 z2 | D4 [A,E]2 [F,A,F]2 | [B,,B,]6 z2 |] %27
V:4
 x8 | x8 | x8 | x8 | .[C,G,]2[K:treble][K:bass] .C,G .C,2[K:treble][K:bass] .[C,C]2 | x8 | %6
 F,4- [F,-C]2 [F,-B,]2 | [F,A,]6 z2 | x8 | x8 | x8 | x8 | %12
 .[C,G,]2 .[C,C]=E .C,2[K:treble][K:bass] .[C,C]E | x3[K:treble] x[K:bass] x4 | %14
 F,4- [F,-C]2 [F,-B,]2 | [F,A,]6 z2 | x8 | B,,6[K:treble][K:bass] z2 | [B,,B,]6 z2 | x8 | %20
 z2[K:treble][K:bass] z G C,2 [C,C]2 | x8 | x8 | x8 | z2 _A,2 G,2 [^F,_D]2 | F,6 z2 | x8 |] %27
V:5
 x8 | x8 | x8 | x8 | x8 | x8 | x8 | x8 | x8 | x8 | x8 | x8 | x8 | x8 | x8 | x8 | x8 | x8 | x8 | %19
 x8 | z4 [C=E]2 E2 | z2 z G/A/ [C=EB]2 [B,CE]2 | x8 | x8 | x8 | x8 | x8 |] %27
V:6
 x8 | x8 | x8 | x8 | x[K:treble] x[K:bass] x3[K:treble] x[K:bass] x2 | x8 | x8 | x8 | x8 | x8 | %10
 x8 | x8 | x5[K:treble] x[K:bass] x2 | x3[K:treble] x[K:bass] x4 | x8 | x8 | x8 | %17
 x4[K:treble] x2[K:bass] x2 | x8 | x8 | [C,G,]2[K:treble][K:bass] C,2 z4 | x8 | x8 | x8 | x8 | x8 | %26
 x8 |] %27

